assets/src/img/social/icon_social-mail.svg

<svg class="icon_mail" xmlns="http://www.w3.org/2000/svg" viewBox="0 0 400 304"><path d="M2.937 41.798c4.192 34.611 21.662 48.42 101.594 80.306l96.531 38.507 95.469-38.724c78.493-31.838 96.369-46.118 100.532-80.305L402.126 0H-2.126l5.063 41.798M0 206.134V304h400v-96c0-109.004 1.534-108.163-111.543-61.17-82.199 34.16-85.238 34.282-158.133 6.341C-8.12 100.105 0 96.805 0 206.134" fill-rule="evenodd"/></svg>

<svg id="svg" xmlns="http://www.w3.org/2000/svg" xmlns:xlink="http://www.w3.org/1999/xlink" width="400" height="304" viewBox="0, 0, 400,304"><g id="svgg"><path id="path0" d="M2.937 41.798 C 7.129 76.409,24.599 90.218,104.531 122.104 L 201.062 160.611 296.531 121.887 C 375.024 90.049,392.900 75.769,397.063 41.582 L 402.126 0.000 200.000 0.000 L -2.126 0.000 2.937 41.798 M0.000 206.134 L 0.000 304.000 200.000 304.000 L 400.000 304.000 400.000 208.000 C 400.000 98.996,401.534 99.837,288.457 146.830 C 206.258 180.990,203.219 181.112,130.324 153.171 C -8.120 100.105,0.000 96.805,0.000 206.134 " stroke="none" fill="#000000" fill-rule="evenodd"></path></g></svg>
